resources/svg/cards.svg

<svg xmlns="http://www.w3.org/2000/svg" viewBox="0 0 256 256" fill="currentColor"><path d="M184.00781,72h-144a16.01833,16.01833,0,0,0-16,16V200a16.01833,16.01833,0,0,0,16,16h144a16.01833,16.01833,0,0,0,16-16V88A16.01833,16.01833,0,0,0,184.00781,72Zm0,128h-144V88h144l.01026,111.99951Zm48-144V176a8,8,0,0,1-16,0V56h-152a8,8,0,0,1,0-16h152A16.01833,16.01833,0,0,1,232.00781,56Z"/></svg>

<svg xmlns="http://www.w3.org/2000/svg" viewBox="0 0 256 256" fill="currentColor"><path d="M184,72H40A16,16,0,0,0,24,88V200a16,16,0,0,0,16,16H184a16,16,0,0,0,16-16V88A16,16,0,0,0,184,72Zm0,128H40V88H184V200ZM232,56V176a8,8,0,0,1-16,0V56H64a8,8,0,0,1,0-16H216A16,16,0,0,1,232,56Z"/></svg>
